X:22
T:Ha'd the lass till I win at her
Z:Jack Campin <http://www.campin.me.uk/>
S:MacFarlan MS II #
M:4/4
L:1/8
M:1/2=108
K:D
Af`fg    fdec|Ae`ec    dg B/c/d/B/|Ae`eg    fd`ef|g>edg BGdB:|
Aa f/g/a fdec|Aa f/g/a dG`dB      |Aa f/g/a f>def|g>edg BGdB:|
